X:1
T:Svingedans
T:(FMK Ske 29 bild 121)
T:efter "Gubben från Sjöbotrakten"
R:Svingedans
O:Sjöbotrakten, Skåne
B:Folkmusikkommissionen
Z:Åke Persson 2012-03-20
M:3/4
L:1/8
K:D
|: df e2 c2 | dcde f2 | Af e2 c2 | dABG A2 :|
|: d2 Tf2 af | defg e2 | d2 Tf2 af | defg e2 |
df e2 c2 | dcde f2 | Af e2 c2 | dABG A2 :|

